styles/4/Numix/96/places/yellow-folder-pictures.svg

<?xml version="1.0" encoding="UTF-8" standalone="no"?>
<!-- Created with Inkscape (http://www.inkscape.org/) -->

<svg
   xmlns:dc="http://purl.org/dc/elements/1.1/"
   xmlns:cc="http://creativecommons.org/ns#"
   xmlns:rdf="http://www.w3.org/1999/02/22-rdf-syntax-ns#"
   xmlns:svg="http://www.w3.org/2000/svg"
   xmlns="http://www.w3.org/2000/svg"
   xmlns:sodipodi="http://sodipodi.sourceforge.net/DTD/sodipodi-0.dtd"
   xmlns:inkscape="http://www.inkscape.org/namespaces/inkscape"
   width="96"
   height="96"
   id="svg2"
   version="1.1"
   inkscape:version="0.91 r"
   sodipodi:docname="yellow-folder-pictures.svg"
   inkscape:export-filename="/media/Data/Main/Visuals/Icons/Numix/Desktop/repos/numix-wiki/Gjorgi/Numix-folders/48/New/folder-144.png"
   inkscape:export-xdpi="270"
   inkscape:export-ydpi="270">
  <defs
     id="defs4" />
  <sodipodi:namedview
     id="base"
     pagecolor="#ffffff"
     bordercolor="#666666"
     borderopacity="1.0"
     inkscape:pageopacity="0.0"
     inkscape:pageshadow="2"
     inkscape:zoom="4.9240816"
     inkscape:cx="22.46603"
     inkscape:cy="33.416598"
     inkscape:document-units="px"
     inkscape:current-layer="layer1"
     showgrid="true"
     inkscape:window-width="1280"
     inkscape:window-height="998"
     inkscape:window-x="0"
     inkscape:window-y="0"
     inkscape:window-maximized="1"
     showguides="true"
     inkscape:guide-bbox="true">
    <inkscape:grid
       type="xygrid"
       id="grid2985"
       empspacing="5"
       visible="true"
       enabled="true"
       snapvisiblegridlinesonly="true" />
  </sodipodi:namedview>
  <metadata
     id="metadata7">
    <rdf:RDF>
      <cc:Work
         rdf:about="">
        <dc:format>image/svg+xml</dc:format>
        <dc:type
           rdf:resource="http://purl.org/dc/dcmitype/StillImage" />
        <dc:title />
      </cc:Work>
    </rdf:RDF>
  </metadata>
  <g
     inkscape:label="Layer 1"
     inkscape:groupmode="layer"
     id="layer1"
     transform="translate(0,-956.3622)">
    <path
       style="fill:#ffb300;fill-opacity:1;stroke:none"
       d="m 13.8,974.36218 68.4,0 c 1.8,0 3.8,2.00001 3.8,4.00001 l 0,8 c 0,2.216 -1.6948,4 -3.8,4 l -68.4,0 c -2.1052,0 -3.8,-1.784 -3.8,-4 l 0,-12.00001 z"
       id="path3811"
       inkscape:connector-curvature="0" />
    <path
       style="fill:#ffb300;fill-opacity:1;stroke:none"
       d="m 10,976.36219 c 0,-4.00001 0,-6.00001 3.636364,-6.00001 l 12.727272,0 c 3.636364,0 3.636364,2 3.636364,6.00001 z"
       id="rect3760"
       inkscape:connector-curvature="0"
       sodipodi:nodetypes="csscc" />
    <path
       style="opacity:0.02999998;fill:#000000;fill-opacity:1;stroke:none"
       d="m 10,982.36219 0,10 76,0 0,-10 z"
       id="path3807"
       inkscape:connector-curvature="0" />
    <rect
       style="fill:#ffca28;fill-opacity:1;stroke:none"
       id="rect2990"
       width="84"
       height="50.000027"
       x="6"
       y="986.36218"
       rx="4"
       ry="4.0000019" />
    <path
       style="opacity:0.05;fill:#000000;fill-opacity:1;stroke:none"
       d="m 30,974.36218 0,2.00001 3.8125,0 48.375,0 c 1.8,0 3.8125,2 3.8125,4 l 0,-2 c 0,-2 -2.0125,-4.00001 -3.8125,-4.00001 l -48.375,0 z"
       id="path3813"
       inkscape:connector-curvature="0"
       sodipodi:nodetypes="cccscsscc" />
    <path
       style="opacity:0.05;fill:#000000;fill-opacity:1;stroke:none"
       d="m 13.625,970.36218 c -3.6363636,0 -3.625,2 -3.625,6.00001 l 0.0625,0 c 0.106836,-2.62101 0.6189,-4.00001 3.5625,-4.00001 l 12.75,0 c 2.9436,0 3.455664,1.379 3.5625,4.00001 l 0.0625,0 c 0,-4.00001 0.0114,-6.00001 -3.625,-6.00001 l -12.75,0 z"
       id="path3818"
       inkscape:connector-curvature="0" />
    <path
       style="opacity:0.1;fill:#ffffff;fill-opacity:1;stroke:none"
       d="m 10,986.36219 c -2.216,0 -4,1.784 -4,4 l 0,2 c 0,-2.216 1.784,-4 4,-4 l 76,0 c 2.216,0 4,1.784 4,4 l 0,-2 c 0,-2.216 -1.784,-4 -4,-4 l -76,0 z"
       id="rect2991"
       inkscape:connector-curvature="0" />
    <path
       style="opacity:1.0;fill:#c79a18;fill-opacity:1;fill-rule:evenodd"
       d="M 36 38 C 33.784 38 32 39.784 32 42 L 32 66 C 32 68.216 33.784 70 36 70 L 60 70 C 62.216 70 64 68.216 64 66 L 64 42 C 64 39.784 62.216 38 60 38 L 36 38 z M 36 42 L 60 42 L 60 59.28125 L 53 51 L 48.5625 55.34375 L 42 48 L 36 54 L 36 42 z "
       transform="translate(0,956.3622)"
       id="path12" />
  </g>
</svg>

<!-- Created with Inkscape (http://www.inkscape.org/) -->
<svg xmlns="http://www.w3.org/2000/svg" viewBox="0 0 96 96">
 <g transform="translate(0,-956.3622)">
  <path d="m 13.8 974.36 68.4 0 c 1.8 0 3.8 2 3.8 4 l 0 8 c 0 2.216 -1.695 4 -3.8 4 l -68.4 0 c -2.105 0 -3.8 -1.784 -3.8 -4 l 0 -12 z" style="fill:#ffb300;fill-opacity:1;stroke:none"/>
  <path d="m 10 976.36 c 0 -4 0 -6 3.636 -6 l 12.727 0 c 3.636 0 3.636 2 3.636 6 z" style="fill:#ffb300;fill-opacity:1;stroke:none"/>
  <path d="m 10 982.36 0 10 76 0 0 -10 z" style="fill:#000;opacity:0.03;fill-opacity:1;stroke:none"/>
  <rect width="84" height="50" x="6" y="986.36" rx="4" style="fill:#ffca28;fill-opacity:1;stroke:none"/>
  <path d="m 30 974.36 0 2 3.813 0 48.38 0 c 1.8 0 3.813 2 3.813 4 l 0 -2 c 0 -2 -2.01 -4 -3.813 -4 l -48.37 0 z" style="fill:#000;opacity:0.05;fill-opacity:1;stroke:none"/>
  <path d="m 13.625 970.36 c -3.636 0 -3.625 2 -3.625 6 l 0.063 0 c 0.107 -2.621 0.619 -4 3.563 -4 l 12.75 0 c 2.944 0 3.456 1.379 3.563 4 l 0.063 0 c 0 -4 0.011 -6 -3.625 -6 l -12.75 0 z" style="fill:#000;opacity:0.05;fill-opacity:1;stroke:none"/>
  <path d="m 10 986.36 c -2.216 0 -4 1.784 -4 4 l 0 2 c 0 -2.216 1.784 -4 4 -4 l 76 0 c 2.216 0 4 1.784 4 4 l 0 -2 c 0 -2.216 -1.784 -4 -4 -4 l -76 0 z" style="fill:#fff;opacity:0.1;fill-opacity:1;stroke:none"/>
  <path d="m 36 38 c -2.216 0 -4 1.784 -4 4 l 0 24 c 0 2.216 1.784 4 4 4 l 24 0 c 2.216 0 4 -1.784 4 -4 l 0 -24 c 0 -2.216 -1.784 -4 -4 -4 l -24 0 z m 0 4 l 24 0 l 0 17.281 l -7 -8.281 l -4.438 4.344 l -6.563 -7.344 l -6 6 l 0 -12 z" transform="translate(0,956.3622)" style="fill:#c79a18;opacity:1;fill-opacity:1;fill-rule:evenodd"/>
 </g>
</svg>
